assets/images/login-connectors/walletconnect.svg

<svg width="100" height="100" viewBox="0 0 100 100" fill="none" xmlns="http://www.w3.org/2000/svg">
<circle cx="50" cy="50" r="50" fill="#4084ED" />
<path d="M27.8586 35.7184C40.0851 23.5105 59.9133 23.5105 72.1398 35.7184L73.6086 37.1793C73.7553 37.3233 73.8718 37.4951 73.9513 37.6846C74.0309 37.8742 74.0718 38.0776 74.0718 38.2832C74.0718 38.4888 74.0309 38.6922 73.9513 38.8818C73.8718 39.0713 73.7553 39.2431 73.6086 39.3871L68.5805 44.4184C68.4321 44.5606 68.2345 44.6401 68.0289 44.6401C67.8233 44.6401 67.6257 44.5606 67.4773 44.4184L65.4461 42.3871C56.9148 33.8652 43.0836 33.8652 34.5523 42.3871L32.3851 44.5559C32.2368 44.6977 32.0396 44.7768 31.8344 44.7768C31.6292 44.7768 31.4319 44.6977 31.2836 44.5559L26.2336 39.5465C26.0866 39.4025 25.9699 39.2306 25.8902 39.0409C25.8106 38.8512 25.7695 38.6475 25.7695 38.4418C25.7695 38.2361 25.8106 38.0324 25.8902 37.8427C25.9699 37.653 26.0866 37.4811 26.2336 37.3371L27.8586 35.7184ZM82.5461 46.1137L87.0351 50.5918C87.1818 50.7358 87.2984 50.9076 87.3779 51.0971C87.4574 51.2867 87.4984 51.4901 87.4984 51.6957C87.4984 51.9013 87.4574 52.1047 87.3779 52.2943C87.2984 52.4838 87.1818 52.6556 87.0351 52.7996L66.8195 72.9777C66.675 73.123 66.5033 73.2383 66.3141 73.3169C66.1249 73.3956 65.9221 73.4361 65.7172 73.4361C65.5123 73.4361 65.3094 73.3956 65.1202 73.3169C64.9311 73.2383 64.7593 73.123 64.6148 72.9777L50.2789 58.659C50.2425 58.6214 50.1989 58.5915 50.1507 58.5712C50.1025 58.5508 50.0507 58.5402 49.9984 58.5402C49.9461 58.5402 49.8943 58.5508 49.8461 58.5712C49.798 58.5915 49.7544 58.6214 49.718 58.659L35.3836 72.9777C35.2391 73.123 35.0673 73.2383 34.8782 73.3169C34.689 73.3956 34.4861 73.4361 34.2812 73.4361C34.0764 73.4361 33.8735 73.3956 33.6843 73.3169C33.4951 73.2383 33.3234 73.123 33.1789 72.9777L12.9633 52.7996C12.8166 52.6556 12.7001 52.4838 12.6205 52.2943C12.541 52.1047 12.5 51.9013 12.5 51.6957C12.5 51.4901 12.541 51.2867 12.6205 51.0971C12.7001 50.9076 12.8166 50.7358 12.9633 50.5918L17.4508 46.1137C17.5953 45.9682 17.7671 45.8527 17.9565 45.7739C18.1458 45.6951 18.3488 45.6545 18.5539 45.6545C18.759 45.6545 18.962 45.6951 19.1513 45.7739C19.3406 45.8527 19.5125 45.9682 19.657 46.1137L33.9914 60.434C34.0278 60.4715 34.0714 60.5014 34.1196 60.5218C34.1678 60.5422 34.2195 60.5527 34.2719 60.5527C34.3242 60.5527 34.376 60.5422 34.4241 60.5218C34.4723 60.5014 34.5159 60.4715 34.5523 60.434L48.8867 46.1137C49.0312 45.9682 49.2031 45.8527 49.3924 45.7739C49.5817 45.6951 49.7848 45.6545 49.9898 45.6545C50.1949 45.6545 50.3979 45.6951 50.5873 45.7739C50.7766 45.8527 50.9485 45.9682 51.093 46.1137L65.4273 60.434C65.582 60.5902 65.8336 60.5902 65.9883 60.434L80.3226 46.1137C80.6183 45.8198 81.0183 45.6548 81.4351 45.6548C81.852 45.6548 82.2504 45.8198 82.5461 46.1137Z" fill="white" />
</svg>

<svg xmlns="http://www.w3.org/2000/svg" fill="none" viewBox="0 0 100 100">
  <circle cx="50" cy="50" r="50" fill="#4084ED"/>
  <path fill="#fff" d="M27.859 35.718c12.226-12.208 32.054-12.208 44.28 0l1.47 1.461a1.546 1.546 0 0 1 0 2.208l-5.028 5.031a.797.797 0 0 1-1.104 0l-2.03-2.03c-8.532-8.523-22.363-8.523-30.895 0l-2.167 2.168a.797.797 0 0 1-1.101 0l-5.05-5.01a1.546 1.546 0 0 1 0-2.209l1.625-1.619Zm54.687 10.396 4.49 4.478a1.547 1.547 0 0 1 0 2.208L66.82 72.978a1.553 1.553 0 0 1-2.205 0L50.279 58.659a.388.388 0 0 0-.433-.088.389.389 0 0 0-.128.088L35.384 72.978a1.554 1.554 0 0 1-2.205 0L12.963 52.8a1.548 1.548 0 0 1 0-2.208l4.488-4.478a1.554 1.554 0 0 1 2.206 0l14.334 14.32a.391.391 0 0 0 .561 0l14.335-14.32a1.555 1.555 0 0 1 2.206 0l14.334 14.32a.394.394 0 0 0 .561 0l14.335-14.32a1.578 1.578 0 0 1 2.223 0Z"/>
</svg>
